src/assets/images/icons/people.svg

<?xml version="1.0" encoding="utf-8"?>
<svg width="32" height="32" viewBox="0 0 32 32" fill="none" xmlns="http://www.w3.org/2000/svg">
<path d="M6 9.21484C7.65685 9.21484 9 7.8717 9 6.21484C9 4.55799 7.65685 3.21484 6 3.21484C4.34315 3.21484 3 4.55799 3 6.21484C3 7.8717 4.34315 9.21484 6 9.21484Z" fill="#1F3D56"/>
<path d="M7 25.2148V15.2148C7 13.7358 7.464 12.3648 8.25 11.2328C8.167 11.2278 8.084 11.2148 8 11.2148H4C1.794 11.2148 0 13.0088 0 15.2148V21.2148H2V28.2148H9V25.2148H7Z" fill="#1F3D56"/>
<path d="M26 9.21484C27.6569 9.21484 29 7.8717 29 6.21484C29 4.55799 27.6569 3.21484 26 3.21484C24.3431 3.21484 23 4.55799 23 6.21484C23 7.8717 24.3431 9.21484 26 9.21484Z" fill="#1F3D56"/>
<path d="M25 25.2148V15.2148C25 13.7358 24.536 12.3648 23.75 11.2328C23.833 11.2278 23.916 11.2148 24 11.2148H28C30.206 11.2148 32 13.0088 32 15.2148V21.2148H30V28.2148H23V25.2148H25Z" fill="#1F3D56"/>
<path d="M18 10.2148H14C11.243 10.2148 9 12.4578 9 15.2148V23.2148H12V31.2148H20V23.2148H23V15.2148C23 12.4578 20.757 10.2148 18 10.2148Z" fill="#1F3D56"/>
<path d="M16 8.21484C18.2091 8.21484 20 6.42398 20 4.21484C20 2.0057 18.2091 0.214844 16 0.214844C13.7909 0.214844 12 2.0057 12 4.21484C12 6.42398 13.7909 8.21484 16 8.21484Z" fill="#1F3D56"/>
</svg>

<svg width="32" height="32" fill="none" xmlns="http://www.w3.org/2000/svg"><path d="M6 9.215a3 3 0 100-6 3 3 0 000 6zM7 25.215v-10c0-1.48.464-2.85 1.25-3.982-.083-.005-.166-.018-.25-.018H4c-2.206 0-4 1.794-4 4v6h2v7h7v-3H7zM26 9.215a3 3 0 100-6 3 3 0 000 6zM25 25.215v-10c0-1.48-.464-2.85-1.25-3.982.083-.005.166-.018.25-.018h4c2.206 0 4 1.794 4 4v6h-2v7h-7v-3h2zM18 10.215h-4c-2.757 0-5 2.243-5 5v8h3v8h8v-8h3v-8c0-2.757-2.243-5-5-5zM16 8.215a4 4 0 100-8 4 4 0 000 8z" fill="#1F3D56"/></svg>
